X: 24
T: Acemaşîrân Seyir
C: Erol Bingöl
O: Turkey
F: http://compmusic.upf.edu/node/140
N: acemasiran--seyir--sofyan--1--erol_bingol
N: makam= acemasiran
N: form= seyir
N: usul= sofyan = 4/4
M: 4/4
L: 1/16
K: C _B   
Q: 1/4=60
%%MIDI tuningsystem comma53
c4 f2e2 f4 g2a2  | g2f2 e2d2 e3d c4  | \
w:   |   | 
d2e2 d2c2 d2e2 f2g2  | 
w:   | 
e4 f12  | f2e2 f2a2 g3f e4  | d2e2 f2g2 f3e d4  | \
w:   |   |   | 
a2g2 f2e2 g2f2 e2d2  | 
w:   | 
c2=B2 e2dc c8  | f4 f2e2 d4 c4  | c2d2 d2c2 B2A2 B4  | \
w:   |   |   | 
A2B2 c2_e2 d2c4B2  | 
w:   | 
B3A ^G2A2 G2B2 A4  | G2AB A2G2 A2B2 c2d2  | \
w:   |   | 
c2B2 A2G2 A3G F4  | 
w:   | 
G2B2 A2G2 F3E D2E2  | F12 z4  | |


